packages/match-logos/mono/svg/doordash.svg

<svg fill="none" height="24" viewBox="0 0 207 24" width="207" xmlns="http://www.w3.org/2000/svg"><path clip-rule="evenodd" d="m40.8797 5.69722c-.9466-1.71014-2.3303-3.13836-4.0095-4.13877-1.6793-1.000415-3.594-1.5371609-5.5486-1.55541526h-30.30119c-.199009-.01652374-.397753.03477066-.563907.14554026-.166154.110769-.289942.274496-.351231.464551-.09538722.182485-.1271801.391574-.0903455.594164s.1401925.38711.2937095.52434l6.609324 6.60932c.57046.56406 1.33344.89105 2.13532.91514h21.35322c.7281 0 1.4264.28924 1.9413.80411.5148.5149.8041 1.2132.8041 1.9413s-.2893 1.4264-.8041 1.9413c-.5149.5149-1.2132.8041-1.9413.8041h-14.6422c-.199-.0165-.3978.0348-.5639.1455-.1662.1108-.29.2745-.3513.4646-.0953.1825-.1271.3916-.0903.5942s.1402.3871.2937.5243l6.6093 6.6093c.2944.2922.6435.5235 1.0273.6805.3839.157.795.2368 1.2097.2347h6.711c8.643-.1017 15.1506-9.2531 10.2699-18.30278zm161.6743-1.83027v6.40595h-7.118v-6.40595c.009-.0554.004-.11206-.013-.16537-.017-.05332-.047-.10177-.087-.14142-.039-.03965-.088-.06937-.141-.08674-.054-.01736-.11-.02189-.166-.0132h-2.745c-.055-.00869-.112-.00416-.165.0132-.054.01737-.102.04709-.142.08674-.039.03965-.069.0881-.086.14142-.018.05331-.022.10997-.014.16537v16.26905c.007.1056.053.2049.127.2797.075.0748.174.1199.28.1271h2.745c.106-.0072.205-.0523.28-.1271s.12-.1741.127-.2797v-6.5076h7.118v6.5076c.007.1056.052.2049.127.2797s.174.1199.28.1271h2.745c.106-.0072.205-.0523.28-.1271.074-.0748.12-.1741.127-.2797v-16.26905c.008-.0554.004-.11206-.013-.16537-.018-.05332-.048-.10177-.087-.14142-.04-.03965-.088-.06937-.142-.08674-.053-.01736-.11-.02189-.165-.0132h-2.745c-.106.00714-.205.05228-.28.12706-.075.07479-.12.17415-.127.27967zm-27.353 4.27064c0-2.64373 2.237-4.98242 5.898-4.98242 1.924-.00634 3.779.72088 5.186 2.03364.038.04017.067.08837.085.14111.017.05275.023.10874.016.16394.007.0552.001.11118-.016.16393-.018.05274-.047.10094-.085.14111l-1.627 1.62691c-.088.066-.195.10168-.305.10168s-.217-.03568-.305-.10168c-.734-.71739-1.719-1.11889-2.746-1.1185-1.423 0-2.542.81346-2.542 1.83028 0 3.15211 8.44 1.32186 8.44 7.42281 0 3.1521-2.339 5.4908-6.304 5.4908-2.241-.0041-4.392-.8792-6-2.4404-.066-.088-.101-.195-.101-.305s.035-.2171.101-.3051l1.526-1.6269c.088-.066.195-.1017.305-.1017s.217.0357.305.1017c.983.9526 2.291 1.4975 3.66 1.5252 1.831 0 2.949-1.0168 2.949-2.237 0-3.2538-8.44-1.4235-8.44-7.52441zm-14.845 8.43961-1.322 3.7622c-.102.2034-.203.3051-.407.3051h-2.948c-.153-.0255-.295-.0964-.407-.2034-.05-.0559-.078-.1283-.078-.2034 0-.075.028-.1474.078-.2033l6.202-16.26914c.102-.20336.204-.30504.407-.30504h3.254c.203 0 .407.10168.407.30504l6.202 16.26914c.102.1016 0 .305 0 .4067-.048.062-.11.1124-.18.1476s-.148.0543-.226.0558h-2.848c-.203 0-.406-.1017-.406-.3051l-1.322-3.7622zm3.254-8.84634-2.034 5.59254h4.067zm-19.523-4.16896c1.132-.02036 2.257.1859 3.308.60666 1.051.42075 2.007 1.04749 2.813 1.84334.805.79585 1.443 1.74474 1.876 2.79083s.653 2.16827.646 3.30047c.015 1.1345-.199 2.2605-.629 3.3104-.43 1.05-1.068 2.0023-1.875 2.7998-.807.7976-1.767 1.424-2.822 1.8417-1.054.4178-2.183.6182-3.317.5894h-5.796c-.055.0086-.112.0041-.165-.0132-.054-.0174-.102-.0471-.142-.0868-.039-.0396-.069-.0881-.087-.1414-.017-.0533-.021-.11-.013-.1654v-16.26907c.007-.10552.053-.20488.127-.27966.075-.07479.174-.11993.28-.12707zm-2.644 3.3555v10.5749h2.644c1.339-.0288 2.614-.5755 3.559-1.5252.907-1.0045 1.413-2.3071 1.423-3.6606.01-1.3874-.498-2.72859-1.423-3.76219-.454-.48895-1.005-.87733-1.618-1.14005s-1.274-.39394-1.941-.38518zm-22.472-2.94877c.008-.10552.053-.20488.127-.27966.075-.07479.175-.11993.28-.12707h7.016c.745-.02054 1.486.10931 2.18.3818.693.27248 1.324.682 1.856 1.20407.532.52206.952 1.14596 1.237 1.83438s.428 1.42723.421 2.17225c.021 1.0225-.245 2.0304-.766 2.9105-.52.8801-1.276 1.5976-2.182 2.0719l3.253 5.7959c.05.0559.078.1283.078.2033 0 .0751-.028.1475-.078.2034-.048.062-.11.1125-.18.1476-.07.0352-.148.0543-.226.0558h-2.847c-.079-.0015-.156-.0206-.227-.0558-.07-.0351-.132-.0856-.18-.1476l-3.051-5.7959h-3.152v5.4909c.009.0554.004.112-.013.1653s-.047.1018-.087.1415c-.039.0396-.088.0693-.141.0867s-.11.0219-.165.0132h-2.746c-.055.0087-.112.0042-.165-.0132-.054-.0174-.102-.0471-.142-.0867-.039-.0397-.069-.0882-.086-.1415-.018-.0533-.022-.1099-.014-.1653zm7.321 2.84709h-3.66v4.57568h3.66c.598-.0015 1.176-.2181 1.627-.6101.437-.4313.692-1.01353.712-1.6269.016-.60106-.202-1.18477-.61-1.62691-.465-.44733-1.083-.70167-1.729-.71177zm-21.149-3.76223c1.765.02006 3.485.56186 4.943 1.55719 1.458.99534 2.589 2.39973 3.251 4.03643.661 1.63669.824 3.43259.467 5.16159-.356 1.729-1.216 3.3138-2.472 4.5551-1.255 1.2412-2.85 2.0834-4.582 2.4205-1.733.3371-3.527.154-5.156-.5261-1.6295-.6801-3.021-1.827-3.9998-3.2962s-1.5011-3.1951-1.5012-4.9605c.0039-1.1825.2415-2.35261.6989-3.44307.4575-1.09046 1.1258-2.07981 1.9667-2.91124.8409-.83144 1.8374-1.48857 2.9334-1.93368 1.095-.4451 2.268-.6694 3.451-.66002zm0 14.64221c1.469-.0161 2.871-.6137 3.9-1.662 1.03-1.0482 1.601-2.4616 1.59-3.9305.014-.7296-.118-1.4545-.388-2.13251-.27-.67796-.672-1.29532-1.183-1.81601-.512-.52069-1.121-.93426-1.794-1.21653-.673-.28228-1.396-.4276-2.125-.42748-1.469.01611-2.872.61372-3.901 1.66194-1.029 1.04823-1.601 2.46159-1.5902 3.93059-.0036 1.485.5812 2.911 1.6272 3.9656 1.026 1.0264 2.413 1.6104 3.864 1.6269zm-21.5569-14.64221c1.7653.02006 3.4852.56186 4.9432 1.55719 1.4581.99534 2.5891 2.39973 3.2508 4.03643.6617 1.63669.8245 3.43259.4678 5.16159-.3566 1.729-1.2168 3.3138-2.4721 4.5551-1.2554 1.2412-2.8499 2.0834-4.5828 2.4205s-3.5268.154-5.1559-.5261-3.0207-1.827-3.9995-3.2962-1.5011-3.1951-1.5012-4.9605c-.0042-1.1848.2278-2.35863.6824-3.45279.4545-1.09417 1.1226-2.08679 1.9652-2.91985.8425-.83306 1.8426-1.48987 2.9418-1.93206 1.0992-.44218 2.2756-.66088 3.4603-.64331zm0 14.64221c1.0988.0108 2.1747-.3146 3.0834-.9325s1.6068-1.4988 2.0007-2.5247c.4169-1.0246.5235-2.1491.3066-3.2338-.2169-1.08469-.7479-2.0817-1.5268-2.86711-.7516-.79799-1.7318-1.3437-2.806-1.56218s-2.1897-.09901-3.1932.34199c-.9989.44997-1.8468 1.17857-2.442 2.09838-.5952.91982-.9124 1.99182-.9135 3.08742-.0109 1.4689.5609 2.8823 1.5901 3.9305 1.0291 1.0483 2.4318 1.6459 3.9007 1.662zm-21.2515-14.23548c1.132-.02036 2.2567.1859 3.3078.60665 1.0512.42076 2.0076 1.0475 2.8129 1.84335s1.4433 1.74474 1.8765 2.79083c.4331 1.04608.6527 2.16825.6457 3.30045.0155 1.1345-.1983 2.2605-.6285 3.3105-.4302 1.0499-1.0679 2.0022-1.875 2.7997-.807.7976-1.7668 1.424-2.8217 1.8417-1.055.4178-2.1834.6182-3.3177.5894h-5.7959c-.0554.0087-.112.0041-.1654-.0132-.0533-.0174-.1017-.0471-.1414-.0868-.0396-.0396-.0693-.0881-.0867-.1414s-.0219-.11-.0132-.1654v-16.26905c.0071-.10552.0523-.20488.1271-.27967.0747-.07478.1741-.11992.2796-.12706zm-2.5421 3.3555v10.57488h2.6438c1.3389-.0288 2.6146-.5755 3.5588-1.5252.9072-1.0045 1.4138-2.3071 1.4236-3.6605.0095-1.3874-.498-2.72867-1.4236-3.76227-.4535-.48895-1.0046-.87733-1.6176-1.14005-.6131-.26272-1.2744-.39394-1.9412-.38518z" fill="#1f304c" fill-rule="evenodd"/></svg>

<svg width="207" height="24" viewBox="0 0 207 24" fill="none" xmlns="http://www.w3.org/2000/svg">
<path fill-rule="evenodd" clip-rule="evenodd" d="M40.8797 5.69722C39.9331 3.98708 38.5494 2.55886 36.8702 1.55845C35.1909 0.558035 33.2762 0.0212891 31.3216 0.00303474H1.02041C0.821401 -0.013489 0.622657 0.0378054 0.456503 0.148575C0.290349 0.259344 0.166561 0.423071 0.105272 0.613126C0.00988478 0.795611 -0.0219081 1.0047 0.0149265 1.20729C0.0517611 1.40988 0.155119 1.5944 0.308636 1.73163L6.91796 8.34095C7.48842 8.90501 8.2514 9.232 9.05328 9.25609H30.4065C31.1346 9.25609 31.8329 9.54533 32.3478 10.0602C32.8626 10.5751 33.1519 11.2734 33.1519 12.0015C33.1519 12.7296 32.8626 13.4279 32.3478 13.9428C31.8329 14.4577 31.1346 14.7469 30.4065 14.7469H15.7643C15.5653 14.7304 15.3665 14.7817 15.2004 14.8924C15.0342 15.0032 14.9104 15.1669 14.8491 15.357C14.7538 15.5395 14.722 15.7486 14.7588 15.9512C14.7956 16.1538 14.899 16.3383 15.0525 16.4755L21.6618 23.0848C21.9562 23.377 22.3053 23.6083 22.6891 23.7653C23.073 23.9223 23.4841 24.0021 23.8988 24H30.6098C39.2528 23.8983 45.7604 14.7469 40.8797 5.69722ZM202.554 3.86695V10.2729H195.436V3.86695C195.445 3.81155 195.44 3.75489 195.423 3.70158C195.406 3.64826 195.376 3.59981 195.336 3.56016C195.297 3.52051 195.248 3.49079 195.195 3.47342C195.141 3.45606 195.085 3.45153 195.029 3.46022H192.284C192.229 3.45153 192.172 3.45606 192.119 3.47342C192.065 3.49079 192.017 3.52051 191.977 3.56016C191.938 3.59981 191.908 3.64826 191.891 3.70158C191.873 3.75489 191.869 3.81155 191.877 3.86695V20.136C191.884 20.2416 191.93 20.3409 192.004 20.4157C192.079 20.4905 192.178 20.5356 192.284 20.5428H195.029C195.135 20.5356 195.234 20.4905 195.309 20.4157C195.384 20.3409 195.429 20.2416 195.436 20.136V13.6284H202.554V20.136C202.561 20.2416 202.606 20.3409 202.681 20.4157C202.756 20.4905 202.855 20.5356 202.961 20.5428H205.706C205.812 20.5356 205.911 20.4905 205.986 20.4157C206.06 20.3409 206.106 20.2416 206.113 20.136V3.86695C206.121 3.81155 206.117 3.75489 206.1 3.70158C206.082 3.64826 206.052 3.59981 206.013 3.56016C205.973 3.52051 205.925 3.49079 205.871 3.47342C205.818 3.45606 205.761 3.45153 205.706 3.46022H202.961C202.855 3.46736 202.756 3.5125 202.681 3.58728C202.606 3.66207 202.561 3.76143 202.554 3.86695ZM175.201 8.13759C175.201 5.49386 177.438 3.15517 181.099 3.15517C183.023 3.14883 184.878 3.87605 186.285 5.18881C186.323 5.22898 186.352 5.27718 186.37 5.32992C186.387 5.38267 186.393 5.43866 186.386 5.49386C186.393 5.54906 186.387 5.60504 186.37 5.65779C186.352 5.71053 186.323 5.75873 186.285 5.7989L184.658 7.42581C184.57 7.49181 184.463 7.52749 184.353 7.52749C184.243 7.52749 184.136 7.49181 184.048 7.42581C183.314 6.70842 182.329 6.30692 181.302 6.30731C179.879 6.30731 178.76 7.12077 178.76 8.13759C178.76 11.2897 187.2 9.45945 187.2 15.5604C187.2 18.7125 184.861 21.0512 180.896 21.0512C178.655 21.0471 176.504 20.172 174.896 18.6108C174.83 18.5228 174.795 18.4158 174.795 18.3058C174.795 18.1958 174.83 18.0887 174.896 18.0007L176.422 16.3738C176.51 16.3078 176.617 16.2721 176.727 16.2721C176.837 16.2721 176.944 16.3078 177.032 16.3738C178.015 17.3264 179.323 17.8713 180.692 17.899C182.523 17.899 183.641 16.8822 183.641 15.662C183.641 12.4082 175.201 14.2385 175.201 8.13759ZM160.356 16.5772L159.034 20.3394C158.932 20.5428 158.831 20.6445 158.627 20.6445H155.679C155.526 20.619 155.384 20.5481 155.272 20.4411C155.222 20.3852 155.194 20.3128 155.194 20.2377C155.194 20.1627 155.222 20.0903 155.272 20.0344L161.474 3.76526C161.576 3.5619 161.678 3.46022 161.881 3.46022H165.135C165.338 3.46022 165.542 3.5619 165.542 3.76526L171.744 20.0344C171.846 20.136 171.744 20.3394 171.744 20.4411C171.696 20.5031 171.634 20.5535 171.564 20.5887C171.494 20.6239 171.416 20.643 171.338 20.6445H168.49C168.287 20.6445 168.084 20.5428 168.084 20.3394L166.762 16.5772H160.356ZM163.61 7.73086L161.576 13.3234H165.643L163.61 7.73086ZM144.087 3.5619C145.219 3.54154 146.344 3.7478 147.395 4.16856C148.446 4.58931 149.402 5.21605 150.208 6.0119C151.013 6.80775 151.651 7.75664 152.084 8.80273C152.517 9.84882 152.737 10.971 152.73 12.1032C152.745 13.2377 152.531 14.3637 152.101 15.4136C151.671 16.4636 151.033 17.4159 150.226 18.2134C149.419 19.011 148.459 19.6374 147.404 20.0551C146.35 20.4729 145.221 20.6733 144.087 20.6445H138.291C138.236 20.6531 138.179 20.6486 138.126 20.6313C138.072 20.6139 138.024 20.5842 137.984 20.5445C137.945 20.5049 137.915 20.4564 137.897 20.4031C137.88 20.3498 137.876 20.2931 137.884 20.2377V3.96863C137.891 3.86311 137.937 3.76375 138.011 3.68897C138.086 3.61418 138.185 3.56904 138.291 3.5619H144.087ZM141.443 6.9174V17.4923H144.087C145.426 17.4635 146.701 16.9168 147.646 15.9671C148.553 14.9626 149.059 13.66 149.069 12.3065C149.079 10.9191 148.571 9.57791 147.646 8.54431C147.192 8.05536 146.641 7.66698 146.028 7.40426C145.415 7.14154 144.754 7.01032 144.087 7.01908L141.443 6.9174ZM118.971 3.96863C118.979 3.86311 119.024 3.76375 119.098 3.68897C119.173 3.61418 119.273 3.56904 119.378 3.5619H126.394C127.139 3.54136 127.88 3.67121 128.574 3.9437C129.267 4.21618 129.898 4.6257 130.43 5.14777C130.962 5.66983 131.382 6.29373 131.667 6.98215C131.952 7.67057 132.095 8.40938 132.088 9.1544C132.109 10.1769 131.843 11.1848 131.322 12.0649C130.802 12.945 130.046 13.6625 129.14 14.1368L132.393 19.9327C132.443 19.9886 132.471 20.061 132.471 20.136C132.471 20.2111 132.443 20.2835 132.393 20.3394C132.345 20.4014 132.283 20.4519 132.213 20.487C132.143 20.5222 132.065 20.5413 131.987 20.5428H129.14C129.061 20.5413 128.984 20.5222 128.913 20.487C128.843 20.4519 128.781 20.4014 128.733 20.3394L125.682 14.5435H122.53V20.0344C122.539 20.0898 122.534 20.1464 122.517 20.1997C122.5 20.253 122.47 20.3015 122.43 20.3412C122.391 20.3808 122.342 20.4105 122.289 20.4279C122.236 20.4453 122.179 20.4498 122.124 20.4411H119.378C119.323 20.4498 119.266 20.4453 119.213 20.4279C119.159 20.4105 119.111 20.3808 119.071 20.3412C119.032 20.3015 119.002 20.253 118.985 20.1997C118.967 20.1464 118.963 20.0898 118.971 20.0344V3.96863ZM126.292 6.81572H122.632V11.3914H126.292C126.89 11.3899 127.468 11.1733 127.919 10.7813C128.356 10.35 128.611 9.76777 128.631 9.1544C128.647 8.55334 128.429 7.96963 128.021 7.52749C127.556 7.08016 126.938 6.82582 126.292 6.81572ZM105.143 3.05349C106.908 3.07355 108.628 3.61535 110.086 4.61068C111.544 5.60602 112.675 7.01041 113.337 8.64711C113.998 10.2838 114.161 12.0797 113.804 13.8087C113.448 15.5377 112.588 17.1225 111.332 18.3638C110.077 19.605 108.482 20.4472 106.75 20.7843C105.017 21.1214 103.223 20.9383 101.594 20.2582C99.9645 19.5781 98.573 18.4312 97.5942 16.962C96.6154 15.4928 96.0931 13.7669 96.093 12.0015C96.0969 10.819 96.3345 9.64889 96.7919 8.55843C97.2494 7.46797 97.9177 6.47862 98.7586 5.64719C99.5995 4.81575 100.596 4.15862 101.692 3.71351C102.787 3.26841 103.96 3.04411 105.143 3.05349ZM105.143 17.6957C106.612 17.6796 108.014 17.082 109.043 16.0337C110.073 14.9855 110.644 13.5721 110.633 12.1032C110.647 11.3736 110.515 10.6487 110.245 9.97069C109.975 9.29273 109.573 8.67537 109.062 8.15468C108.55 7.63399 107.941 7.22042 107.268 6.93815C106.595 6.65587 105.872 6.51055 105.143 6.51067C103.674 6.52678 102.271 7.12439 101.242 8.17261C100.213 9.22084 99.641 10.6342 99.6518 12.1032C99.6482 13.5882 100.233 15.0142 101.279 16.0688C102.305 17.0952 103.692 17.6792 105.143 17.6957ZM83.5861 3.05349C85.3514 3.07355 87.0713 3.61535 88.5293 4.61068C89.9874 5.60602 91.1184 7.01041 91.7801 8.64711C92.4418 10.2838 92.6046 12.0797 92.2479 13.8087C91.8913 15.5377 91.0311 17.1225 89.7758 18.3638C88.5204 19.605 86.9259 20.4472 85.193 20.7843C83.4601 21.1214 81.6662 20.9383 80.0371 20.2582C78.408 19.5781 77.0164 18.4312 76.0376 16.962C75.0588 15.4928 74.5365 13.7669 74.5364 12.0015C74.5322 10.8167 74.7642 9.64287 75.2188 8.54871C75.6733 7.45454 76.3414 6.46192 77.184 5.62886C78.0265 4.7958 79.0266 4.13899 80.1258 3.6968C81.225 3.25462 82.4014 3.03592 83.5861 3.05349ZM83.5861 17.6957C84.6849 17.7065 85.7608 17.3811 86.6695 16.7632C87.5782 16.1453 88.2763 15.2644 88.6702 14.2385C89.0871 13.2139 89.1937 12.0894 88.9768 11.0047C88.7599 9.92001 88.2289 8.923 87.45 8.13759C86.6984 7.3396 85.7182 6.79389 84.644 6.57541C83.5698 6.35693 82.4543 6.4764 81.4508 6.9174C80.4519 7.36737 79.604 8.09597 79.0088 9.01578C78.4136 9.9356 78.0964 11.0076 78.0953 12.1032C78.0844 13.5721 78.6562 14.9855 79.6854 16.0337C80.7145 17.082 82.1172 17.6796 83.5861 17.6957ZM62.3346 3.46022C63.4666 3.43986 64.5913 3.64612 65.6424 4.06687C66.6936 4.48763 67.65 5.11437 68.4553 5.91022C69.2606 6.70607 69.8986 7.65496 70.3318 8.70105C70.7649 9.74713 70.9845 10.8693 70.9775 12.0015C70.993 13.136 70.7792 14.262 70.349 15.312C69.9188 16.3619 69.2811 17.3142 68.474 18.1117C67.667 18.9093 66.7072 19.5357 65.6523 19.9534C64.5973 20.3712 63.4689 20.5716 62.3346 20.5428H56.5387C56.4833 20.5515 56.4267 20.5469 56.3733 20.5296C56.32 20.5122 56.2716 20.4825 56.2319 20.4428C56.1923 20.4032 56.1626 20.3547 56.1452 20.3014C56.1278 20.2481 56.1233 20.1914 56.132 20.136V3.86695C56.1391 3.76143 56.1843 3.66207 56.2591 3.58728C56.3338 3.5125 56.4332 3.46736 56.5387 3.46022H62.3346ZM59.7925 6.81572V17.3906H62.4363C63.7752 17.3618 65.0509 16.8151 65.9951 15.8654C66.9023 14.8609 67.4089 13.5583 67.4187 12.2049C67.4282 10.8175 66.9207 9.47623 65.9951 8.44263C65.5416 7.95368 64.9905 7.5653 64.3775 7.30258C63.7644 7.03986 63.1031 6.90864 62.4363 6.9174L59.7925 6.81572Z" fill="#1F304C"/>
</svg>
